report_00007_2020-12-11T15:55:29.892Z/bootup-time/samples/pages+cached+noexternal/raw/sorted.svg

<svg width="640" height="490" xmlns="http://www.w3.org/2000/svg" xmlns:xlink="http://www.w3.org/1999/xlink"><path fill="#fff" d="M0 0h640v490H0z"/><defs><path id="d" stroke-width=".222" stroke="currentColor" d="M-1-1h2v2h-2z"/><path id="b" stroke-width=".222" stroke="currentColor" d="M0-1.33l-1.33 2h2.66z"/><path id="f" stroke-width=".222" stroke="currentColor" d="M0 1.33L1.265.411.782-1.067l-1.564-.009-.483 1.487z"/><use xlink:href="#b" id="c" stroke="currentColor" transform="rotate(180)"/><use xlink:href="#d" id="e" stroke="currentColor" transform="rotate(45)"/><circle id="a" stroke-width=".222" stroke="currentColor" cx="0" cy="0" r="1"/></defs><g fill="none" color="#000" stroke="currentColor"><path stroke="#000" d="M45.6 427.7h9m560.4 0h-9"/><text transform="translate(37.3 431.6)" stroke="none" fill="#000" font-family="Arial" font-size="12" text-anchor="end"><tspan>42</tspan></text></g><g fill="none" color="#000" stroke="currentColor"><path stroke="#000" d="M45.6 351h9m560.4 0h-9"/><text transform="translate(37.3 354.9)" stroke="none" fill="#000" font-family="Arial" font-size="12" text-anchor="end"><tspan>43</tspan></text></g><g fill="none" color="#000" stroke="currentColor"><path stroke="#000" d="M45.6 274.3h9m560.4 0h-9"/><text transform="translate(37.3 278.2)" stroke="none" fill="#000" font-family="Arial" font-size="12" text-anchor="end"><tspan>44</tspan></text></g><g fill="none" color="#000" stroke="currentColor"><path stroke="#000" d="M45.6 197.6h9m560.4 0h-9"/><text transform="translate(37.3 201.5)" stroke="none" fill="#000" font-family="Arial" font-size="12" text-anchor="end"><tspan>45</tspan></text></g><g fill="none" color="#000" stroke="currentColor"><path stroke="#000" d="M45.6 120.9h9m560.4 0h-9"/><text transform="translate(37.3 124.8)" stroke="none" fill="#000" font-family="Arial" font-size="12" text-anchor="end"><tspan>46</tspan></text></g><g fill="none" color="#000" stroke="currentColor"><path stroke="#000" d="M45.6 44.2h9m560.4 0h-9"/><text transform="translate(37.3 48.1)" stroke="none" fill="#000" font-family="Arial" font-size="12" text-anchor="end"><tspan>47</tspan></text></g><g fill="none" color="#000" stroke="currentColor"><path stroke="#000" d="M45.6 436v-9m0-408.9v9"/><text transform="translate(45.6 457.9)" stroke="none" fill="#000" font-family="Arial" font-size="12" text-anchor="middle"><tspan>0</tspan></text></g><g fill="none" color="#000" stroke="currentColor"><path stroke="#000" d="M103.1 436v-9m0-408.9v9"/><text transform="translate(103.1 457.9)" stroke="none" fill="#000" font-family="Arial" font-size="12" text-anchor="middle"><tspan>10</tspan></text></g><g fill="none" color="#000" stroke="currentColor"><path stroke="#000" d="M160.6 436v-9m0-408.9v9"/><text transform="translate(160.6 457.9)" stroke="none" fill="#000" font-family="Arial" font-size="12" text-anchor="middle"><tspan>20</tspan></text></g><g fill="none" color="#000" stroke="currentColor"><path stroke="#000" d="M218.1 436v-9m0-408.9v9"/><text transform="translate(218.1 457.9)" stroke="none" fill="#000" font-family="Arial" font-size="12" text-anchor="middle"><tspan>30</tspan></text></g><g fill="none" color="#000" stroke="currentColor"><path stroke="#000" d="M275.7 436v-9m0-408.9v9"/><text transform="translate(275.7 457.9)" stroke="none" fill="#000" font-family="Arial" font-size="12" text-anchor="middle"><tspan>40</tspan></text></g><g fill="none" color="#000" stroke="currentColor"><path stroke="#000" d="M333.2 436v-9m0-408.9v9"/><text transform="translate(333.2 457.9)" stroke="none" fill="#000" font-family="Arial" font-size="12" text-anchor="middle"><tspan>50</tspan></text></g><g fill="none" color="#000" stroke="currentColor"><path stroke="#000" d="M390.7 436v-9m0-408.9v9"/><text transform="translate(390.7 457.9)" stroke="none" fill="#000" font-family="Arial" font-size="12" text-anchor="middle"><tspan>60</tspan></text></g><g fill="none" color="#000" stroke="currentColor"><path stroke="#000" d="M448.2 436v-9m0-408.9v9"/><text transform="translate(448.2 457.9)" stroke="none" fill="#000" font-family="Arial" font-size="12" text-anchor="middle"><tspan>70</tspan></text></g><g fill="none" color="#000" stroke="currentColor"><path stroke="#000" d="M505.7 436v-9m0-408.9v9"/><text transform="translate(505.7 457.9)" stroke="none" fill="#000" font-family="Arial" font-size="12" text-anchor="middle"><tspan>80</tspan></text></g><g fill="none" color="#000" stroke="currentColor"><path stroke="#000" d="M563.2 436v-9m0-408.9v9"/><text transform="translate(563.2 457.9)" stroke="none" fill="#000" font-family="Arial" font-size="12" text-anchor="middle"><tspan>90</tspan></text></g><path stroke="#000" d="M45.6 18.1V436H615V18.1H45.6z" fill="none" color="#000"/><text transform="translate(171.5 475.9)" stroke="none" fill="#000" font-family="Arial" font-size="12" text-anchor="end" color="#000"><tspan>raw</tspan></text><path stroke="#9400D3" d="M179.8 472H222M45.6 428l5.8-37.5 5.7-23.9 5.8-12.3 5.7-.3 5.8-9.8 5.7-23.9 5.8-.3 5.7-8 5.8-.9 5.7-1.2 5.8-4.6 5.7-2.5 5.8-3.7 5.7-1.5 5.8-.6 5.7-.9 5.8-4.6 5.7-.6 5.8-.7h5.7l5.8-1.8 5.7-.3 5.8-.3 5.7-3.1 5.8-1.2h5.7l5.8-.9 5.7-13.8 5.8-.3 5.7-.3 5.8-3.7 5.7-.3 5.8-.6 5.8-2.5 5.7-2.5 5.8-5.5 5.7-.6 5.8-2.4 5.7-.4h5.8l5.7-.6 5.8-2.1 5.7-.6 5.8-.9 5.7-1 5.8-.3 5.7-2.1 5.8-.6 5.7-1.3 5.8-1.8 5.7-.3 5.8-.3 5.7-1.2 5.8-.3 5.7-1.6 5.8-1.8 5.7-5.2 5.8-.3 5.7-1.9 5.8-.3 5.7-.6 5.8-3.4 5.7-.6 5.8-2.4h5.7l5.8-1.3 5.8-1.5 5.7-.9 5.8-.9 5.7-3.7 5.8-2.2 5.7-.6h5.8l5.7-.9 5.8-2.8 5.7-1.2 5.8-1.5 5.7-2.5 5.8-3.4 5.7-3.3 5.8-1.9 5.7-5.2 5.8-.3 5.7-.6 5.8-1.2 5.7-3.1 5.8-1.2 5.7-7.7 5.8-6.4 5.7-5.9 5.8-1.8 5.7-.6 5.8-3.1 5.7-19 5.8-4.9 5.7-26.4h5.8l5.7-21.8 5.8-54.3" fill="none" color="#000"/><text transform="translate(371.4 475.9)" stroke="none" fill="#000" font-family="Arial" font-size="12" text-anchor="end" color="#000"><tspan>score p10=1282</tspan></text><path stroke="#009E73" d="M379.7 472h42.2" fill="none" color="#000"/><text transform="translate(571.3 475.9)" stroke="none" fill="#000" font-family="Arial" font-size="12" text-anchor="end" color="#000"><tspan>score median=3500</tspan></text><path stroke="#56B4E9" d="M579.6 472h42.2" fill="none" color="#000"/><g fill="none" color="#000" stroke="currentColor"><path stroke="#000" d="M45.6 18.1V436H615V18.1H45.6z"/></g></svg>

<?xml version="1.0" encoding="utf-8"  standalone="no"?>
<svg 
 width="640" height="490"
 viewBox="0 0 640 490"
 xmlns="http://www.w3.org/2000/svg"
 xmlns:xlink="http://www.w3.org/1999/xlink"
>

<title>Gnuplot</title>
<desc>Produced by GNUPLOT 5.4 patchlevel 0 </desc>

<g id="gnuplot_canvas">

<rect x="0" y="0" width="640" height="490" fill="#ffffff"/>
<defs>

	<circle id='gpDot' r='0.5' stroke-width='0.5' stroke='currentColor'/>
	<path id='gpPt0' stroke-width='0.222' stroke='currentColor' d='M-1,0 h2 M0,-1 v2'/>
	<path id='gpPt1' stroke-width='0.222' stroke='currentColor' d='M-1,-1 L1,1 M1,-1 L-1,1'/>
	<path id='gpPt2' stroke-width='0.222' stroke='currentColor' d='M-1,0 L1,0 M0,-1 L0,1 M-1,-1 L1,1 M-1,1 L1,-1'/>
	<rect id='gpPt3' stroke-width='0.222' stroke='currentColor' x='-1' y='-1' width='2' height='2'/>
	<rect id='gpPt4' stroke-width='0.222' stroke='currentColor' fill='currentColor' x='-1' y='-1' width='2' height='2'/>
	<circle id='gpPt5' stroke-width='0.222' stroke='currentColor' cx='0' cy='0' r='1'/>
	<use xlink:href='#gpPt5' id='gpPt6' fill='currentColor' stroke='none'/>
	<path id='gpPt7' stroke-width='0.222' stroke='currentColor' d='M0,-1.33 L-1.33,0.67 L1.33,0.67 z'/>
	<use xlink:href='#gpPt7' id='gpPt8' fill='currentColor' stroke='none'/>
	<use xlink:href='#gpPt7' id='gpPt9' stroke='currentColor' transform='rotate(180)'/>
	<use xlink:href='#gpPt9' id='gpPt10' fill='currentColor' stroke='none'/>
	<use xlink:href='#gpPt3' id='gpPt11' stroke='currentColor' transform='rotate(45)'/>
	<use xlink:href='#gpPt11' id='gpPt12' fill='currentColor' stroke='none'/>
	<path id='gpPt13' stroke-width='0.222' stroke='currentColor' d='M0,1.330 L1.265,0.411 L0.782,-1.067 L-0.782,-1.076 L-1.265,0.411 z'/>
	<use xlink:href='#gpPt13' id='gpPt14' fill='currentColor' stroke='none'/>
	<filter id='textbox' filterUnits='objectBoundingBox' x='0' y='0' height='1' width='1'>
	  <feFlood flood-color='#FFFFFF' flood-opacity='1' result='bgnd'/>
	  <feComposite in='SourceGraphic' in2='bgnd' operator='atop'/>
	</filter>
	<filter id='greybox' filterUnits='objectBoundingBox' x='0' y='0' height='1' width='1'>
	  <feFlood flood-color='lightgrey' flood-opacity='1' result='grey'/>
	  <feComposite in='SourceGraphic' in2='grey' operator='atop'/>
	</filter>
</defs>
<g fill="none" color="#FFFFFF" stroke="black" stroke-width="1.00" stroke-linecap="butt" stroke-linejoin="miter">
</g>
<g fill="none" color="black" stroke="currentColor" stroke-width="1.00" stroke-linecap="butt" stroke-linejoin="miter">
	<path stroke='black'  d='M45.6,427.7 L54.6,427.7 M615.0,427.7 L606.0,427.7  '/>	<g transform="translate(37.3,431.6)" stroke="none" fill="black" font-family="Arial" font-size="12.00"  text-anchor="end">
		<text><tspan font-family="Arial" > 42</tspan></text>
	</g>
</g>
<g fill="none" color="black" stroke="currentColor" stroke-width="1.00" stroke-linecap="butt" stroke-linejoin="miter">
	<path stroke='black'  d='M45.6,351.0 L54.6,351.0 M615.0,351.0 L606.0,351.0  '/>	<g transform="translate(37.3,354.9)" stroke="none" fill="black" font-family="Arial" font-size="12.00"  text-anchor="end">
		<text><tspan font-family="Arial" > 43</tspan></text>
	</g>
</g>
<g fill="none" color="black" stroke="currentColor" stroke-width="1.00" stroke-linecap="butt" stroke-linejoin="miter">
	<path stroke='black'  d='M45.6,274.3 L54.6,274.3 M615.0,274.3 L606.0,274.3  '/>	<g transform="translate(37.3,278.2)" stroke="none" fill="black" font-family="Arial" font-size="12.00"  text-anchor="end">
		<text><tspan font-family="Arial" > 44</tspan></text>
	</g>
</g>
<g fill="none" color="black" stroke="currentColor" stroke-width="1.00" stroke-linecap="butt" stroke-linejoin="miter">
	<path stroke='black'  d='M45.6,197.6 L54.6,197.6 M615.0,197.6 L606.0,197.6  '/>	<g transform="translate(37.3,201.5)" stroke="none" fill="black" font-family="Arial" font-size="12.00"  text-anchor="end">
		<text><tspan font-family="Arial" > 45</tspan></text>
	</g>
</g>
<g fill="none" color="black" stroke="currentColor" stroke-width="1.00" stroke-linecap="butt" stroke-linejoin="miter">
	<path stroke='black'  d='M45.6,120.9 L54.6,120.9 M615.0,120.9 L606.0,120.9  '/>	<g transform="translate(37.3,124.8)" stroke="none" fill="black" font-family="Arial" font-size="12.00"  text-anchor="end">
		<text><tspan font-family="Arial" > 46</tspan></text>
	</g>
</g>
<g fill="none" color="black" stroke="currentColor" stroke-width="1.00" stroke-linecap="butt" stroke-linejoin="miter">
	<path stroke='black'  d='M45.6,44.2 L54.6,44.2 M615.0,44.2 L606.0,44.2  '/>	<g transform="translate(37.3,48.1)" stroke="none" fill="black" font-family="Arial" font-size="12.00"  text-anchor="end">
		<text><tspan font-family="Arial" > 47</tspan></text>
	</g>
</g>
<g fill="none" color="black" stroke="currentColor" stroke-width="1.00" stroke-linecap="butt" stroke-linejoin="miter">
	<path stroke='black'  d='M45.6,436.0 L45.6,427.0 M45.6,18.1 L45.6,27.1  '/>	<g transform="translate(45.6,457.9)" stroke="none" fill="black" font-family="Arial" font-size="12.00"  text-anchor="middle">
		<text><tspan font-family="Arial" > 0</tspan></text>
	</g>
</g>
<g fill="none" color="black" stroke="currentColor" stroke-width="1.00" stroke-linecap="butt" stroke-linejoin="miter">
	<path stroke='black'  d='M103.1,436.0 L103.1,427.0 M103.1,18.1 L103.1,27.1  '/>	<g transform="translate(103.1,457.9)" stroke="none" fill="black" font-family="Arial" font-size="12.00"  text-anchor="middle">
		<text><tspan font-family="Arial" > 10</tspan></text>
	</g>
</g>
<g fill="none" color="black" stroke="currentColor" stroke-width="1.00" stroke-linecap="butt" stroke-linejoin="miter">
	<path stroke='black'  d='M160.6,436.0 L160.6,427.0 M160.6,18.1 L160.6,27.1  '/>	<g transform="translate(160.6,457.9)" stroke="none" fill="black" font-family="Arial" font-size="12.00"  text-anchor="middle">
		<text><tspan font-family="Arial" > 20</tspan></text>
	</g>
</g>
<g fill="none" color="black" stroke="currentColor" stroke-width="1.00" stroke-linecap="butt" stroke-linejoin="miter">
	<path stroke='black'  d='M218.1,436.0 L218.1,427.0 M218.1,18.1 L218.1,27.1  '/>	<g transform="translate(218.1,457.9)" stroke="none" fill="black" font-family="Arial" font-size="12.00"  text-anchor="middle">
		<text><tspan font-family="Arial" > 30</tspan></text>
	</g>
</g>
<g fill="none" color="black" stroke="currentColor" stroke-width="1.00" stroke-linecap="butt" stroke-linejoin="miter">
	<path stroke='black'  d='M275.7,436.0 L275.7,427.0 M275.7,18.1 L275.7,27.1  '/>	<g transform="translate(275.7,457.9)" stroke="none" fill="black" font-family="Arial" font-size="12.00"  text-anchor="middle">
		<text><tspan font-family="Arial" > 40</tspan></text>
	</g>
</g>
<g fill="none" color="black" stroke="currentColor" stroke-width="1.00" stroke-linecap="butt" stroke-linejoin="miter">
	<path stroke='black'  d='M333.2,436.0 L333.2,427.0 M333.2,18.1 L333.2,27.1  '/>	<g transform="translate(333.2,457.9)" stroke="none" fill="black" font-family="Arial" font-size="12.00"  text-anchor="middle">
		<text><tspan font-family="Arial" > 50</tspan></text>
	</g>
</g>
<g fill="none" color="black" stroke="currentColor" stroke-width="1.00" stroke-linecap="butt" stroke-linejoin="miter">
	<path stroke='black'  d='M390.7,436.0 L390.7,427.0 M390.7,18.1 L390.7,27.1  '/>	<g transform="translate(390.7,457.9)" stroke="none" fill="black" font-family="Arial" font-size="12.00"  text-anchor="middle">
		<text><tspan font-family="Arial" > 60</tspan></text>
	</g>
</g>
<g fill="none" color="black" stroke="currentColor" stroke-width="1.00" stroke-linecap="butt" stroke-linejoin="miter">
	<path stroke='black'  d='M448.2,436.0 L448.2,427.0 M448.2,18.1 L448.2,27.1  '/>	<g transform="translate(448.2,457.9)" stroke="none" fill="black" font-family="Arial" font-size="12.00"  text-anchor="middle">
		<text><tspan font-family="Arial" > 70</tspan></text>
	</g>
</g>
<g fill="none" color="black" stroke="currentColor" stroke-width="1.00" stroke-linecap="butt" stroke-linejoin="miter">
	<path stroke='black'  d='M505.7,436.0 L505.7,427.0 M505.7,18.1 L505.7,27.1  '/>	<g transform="translate(505.7,457.9)" stroke="none" fill="black" font-family="Arial" font-size="12.00"  text-anchor="middle">
		<text><tspan font-family="Arial" > 80</tspan></text>
	</g>
</g>
<g fill="none" color="black" stroke="currentColor" stroke-width="1.00" stroke-linecap="butt" stroke-linejoin="miter">
	<path stroke='black'  d='M563.2,436.0 L563.2,427.0 M563.2,18.1 L563.2,27.1  '/>	<g transform="translate(563.2,457.9)" stroke="none" fill="black" font-family="Arial" font-size="12.00"  text-anchor="middle">
		<text><tspan font-family="Arial" > 90</tspan></text>
	</g>
</g>
<g fill="none" color="black" stroke="currentColor" stroke-width="1.00" stroke-linecap="butt" stroke-linejoin="miter">
</g>
<g fill="none" color="black" stroke="currentColor" stroke-width="1.00" stroke-linecap="butt" stroke-linejoin="miter">
	<path stroke='black'  d='M45.6,18.1 L45.6,436.0 L615.0,436.0 L615.0,18.1 L45.6,18.1 Z  '/></g>
<g fill="none" color="black" stroke="currentColor" stroke-width="1.00" stroke-linecap="butt" stroke-linejoin="miter">
</g>
	<g id="gnuplot_plot_1" ><title>raw</title>
<g fill="none" color="black" stroke="currentColor" stroke-width="1.00" stroke-linecap="butt" stroke-linejoin="miter">
	<g transform="translate(171.5,475.9)" stroke="none" fill="black" font-family="Arial" font-size="12.00"  text-anchor="end">
		<text><tspan font-family="Arial" >raw</tspan></text>
	</g>
</g>
<g fill="none" color="black" stroke="currentColor" stroke-width="1.00" stroke-linecap="butt" stroke-linejoin="miter">
	<path stroke='rgb(148,   0, 211)'  d='M179.8,472.0 L222.0,472.0 M45.6,428.0 L51.4,390.5 L57.1,366.6 L62.9,354.3 L68.6,354.0 L74.4,344.2
		L80.1,320.3 L85.9,320.0 L91.6,312.0 L97.4,311.1 L103.1,309.9 L108.9,305.3 L114.6,302.8 L120.4,299.1
		L126.1,297.6 L131.9,297.0 L137.6,296.1 L143.4,291.5 L149.1,290.9 L154.9,290.2 L160.6,290.2 L166.4,288.4
		L172.1,288.1 L177.9,287.8 L183.6,284.7 L189.4,283.5 L195.1,283.5 L200.9,282.6 L206.6,268.8 L212.4,268.5
		L218.1,268.2 L223.9,264.5 L229.6,264.2 L235.4,263.6 L241.2,261.1 L246.9,258.6 L252.7,253.1 L258.4,252.5
		L264.2,250.1 L269.9,249.7 L275.7,249.7 L281.4,249.1 L287.2,247.0 L292.9,246.4 L298.7,245.5 L304.4,244.5
		L310.2,244.2 L315.9,242.1 L321.7,241.5 L327.4,240.2 L333.2,238.4 L338.9,238.1 L344.7,237.8 L350.4,236.6
		L356.2,236.3 L361.9,234.7 L367.7,232.9 L373.4,227.7 L379.2,227.4 L384.9,225.5 L390.7,225.2 L396.4,224.6
		L402.2,221.2 L407.9,220.6 L413.7,218.2 L419.4,218.2 L425.2,216.9 L431.0,215.4 L436.7,214.5 L442.5,213.6
		L448.2,209.9 L454.0,207.7 L459.7,207.1 L465.5,207.1 L471.2,206.2 L477.0,203.4 L482.7,202.2 L488.5,200.7
		L494.2,198.2 L500.0,194.8 L505.7,191.5 L511.5,189.6 L517.2,184.4 L523.0,184.1 L528.7,183.5 L534.5,182.3
		L540.2,179.2 L546.0,178.0 L551.7,170.3 L557.5,163.9 L563.2,158.0 L569.0,156.2 L574.7,155.6 L580.5,152.5
		L586.2,133.5 L592.0,128.6 L597.7,102.2 L603.5,102.2 L609.2,80.4 L615.0,26.1  '/></g>
	</g>
	<g id="gnuplot_plot_2" ><title>score p10=1282</title>
<g fill="none" color="black" stroke="currentColor" stroke-width="1.00" stroke-linecap="butt" stroke-linejoin="miter">
	<g transform="translate(371.4,475.9)" stroke="none" fill="black" font-family="Arial" font-size="12.00"  text-anchor="end">
		<text><tspan font-family="Arial" >score p10=1282</tspan></text>
	</g>
</g>
<g fill="none" color="black" stroke="currentColor" stroke-width="1.00" stroke-linecap="butt" stroke-linejoin="miter">
	<path stroke='rgb(  0, 158, 115)'  d='M379.7,472.0 L421.9,472.0  '/></g>
	</g>
	<g id="gnuplot_plot_3" ><title>score median=3500</title>
<g fill="none" color="black" stroke="currentColor" stroke-width="1.00" stroke-linecap="butt" stroke-linejoin="miter">
	<g transform="translate(571.3,475.9)" stroke="none" fill="black" font-family="Arial" font-size="12.00"  text-anchor="end">
		<text><tspan font-family="Arial" >score median=3500</tspan></text>
	</g>
</g>
<g fill="none" color="black" stroke="currentColor" stroke-width="1.00" stroke-linecap="butt" stroke-linejoin="miter">
	<path stroke='rgb( 86, 180, 233)'  d='M579.6,472.0 L621.8,472.0  '/></g>
	</g>
<g fill="none" color="#FFFFFF" stroke="rgb( 86, 180, 233)" stroke-width="2.00" stroke-linecap="butt" stroke-linejoin="miter">
</g>
<g fill="none" color="black" stroke="currentColor" stroke-width="2.00" stroke-linecap="butt" stroke-linejoin="miter">
</g>
<g fill="none" color="black" stroke="black" stroke-width="1.00" stroke-linecap="butt" stroke-linejoin="miter">
</g>
<g fill="none" color="black" stroke="currentColor" stroke-width="1.00" stroke-linecap="butt" stroke-linejoin="miter">
	<path stroke='black'  d='M45.6,18.1 L45.6,436.0 L615.0,436.0 L615.0,18.1 L45.6,18.1 Z  '/></g>
<g fill="none" color="black" stroke="currentColor" stroke-width="1.00" stroke-linecap="butt" stroke-linejoin="miter">
</g>
</g>
</svg>
